.svelte-kit/output/client/library/social-喜马拉雅.svg

<svg width="48" height="48" viewBox="0 0 48 48" fill="none" xmlns="http://www.w3.org/2000/svg">
<rect x="6" y="6" width="36" height="36" rx="8" fill="#F82800"/>
<path d="M34 15H26C25.4477 15 25 15.4477 25 16V22M25 34V22M25 22H33V34" stroke="white" stroke-width="2"/>
<path d="M19.25 33H18.25V35H19.25V33ZM17 35C17.5523 35 18 34.5523 18 34C18 33.4477 17.5523 33 17 33V35ZM15.6 16H19.4V14H15.6V16ZM20 16.6V32.4H22V16.6H20ZM15 32.4V16.6H13V32.4H15ZM19.4 33H19.25V35H19.4V33ZM17 33H15.6V35H17V33ZM13 32.4C13 33.8359 14.1641 35 15.6 35V33C15.2686 33 15 32.7314 15 32.4H13ZM20 32.4C20 32.7314 19.7314 33 19.4 33V35C20.8359 35 22 33.8359 22 32.4H20ZM19.4 16C19.7314 16 20 16.2686 20 16.6H22C22 15.1641 20.8359 14 19.4 14V16ZM15.6 14C14.1641 14 13 15.1641 13 16.6H15C15 16.2686 15.2686 16 15.6 16V14Z" fill="white"/>
<path d="M36 14C36 15.1046 35.1046 16 34 16C34 15.2981 34 14 34 14C34 14 34.9358 14 36 14Z" fill="white"/>
<path d="M36 21C36 22.1046 35.1046 23 34 23C34 22.2981 34 21 34 21C34 21 34.9358 21 36 21Z" fill="white"/>
<path d="M34 34C34 35.1046 33.1046 36 32 36C32 35.2981 32 34 32 34C32 34 32.9358 34 34 34Z" fill="white"/>
<path d="M26 34C26 35.1046 25.1046 36 24 36C24 35.2981 24 34 24 34C24 34 24.9358 34 26 34Z" fill="white"/>
<path d="M20 32C20 34.2091 19.1046 36 18 36C18 34.5963 18 32 18 32C18 32 18.9358 32 20 32Z" fill="#F72900"/>
</svg>

<svg width="48" height="48" fill="none" xmlns="http://www.w3.org/2000/svg"><rect x="6" y="6" width="36" height="36" rx="8" fill="#F82800"/><path d="M34 15h-8a1 1 0 0 0-1 1v6m0 12V22m0 0h8v12" stroke="#fff" stroke-width="2"/><path d="M19.25 33h-1v2h1v-2ZM17 35a1 1 0 1 0 0-2v2Zm-1.4-19h3.8v-2h-3.8v2Zm4.4.6v15.8h2V16.6h-2Zm-5 15.8V16.6h-2v15.8h2Zm4.4.6h-.15v2h.15v-2ZM17 33h-1.4v2H17v-2Zm-4-.6a2.6 2.6 0 0 0 2.6 2.6v-2a.6.6 0 0 1-.6-.6h-2Zm7 0a.6.6 0 0 1-.6.6v2a2.6 2.6 0 0 0 2.6-2.6h-2ZM19.4 16a.6.6 0 0 1 .6.6h2a2.6 2.6 0 0 0-2.6-2.6v2Zm-3.8-2a2.6 2.6 0 0 0-2.6 2.6h2a.6.6 0 0 1 .6-.6v-2ZM36 14a2 2 0 0 1-2 2v-2h2ZM36 21a2 2 0 0 1-2 2v-2h2ZM34 34a2 2 0 0 1-2 2v-2h2ZM26 34a2 2 0 0 1-2 2v-2h2Z" fill="#fff"/><path d="M20 32c0 2.21-.895 4-2 4v-4h2Z" fill="#F72900"/></svg>
